!!!OTL: Es ist dunkel auf hohen Bergen (3-58), S. 168
!!!id: P1031
**kern
*clefG2
*k[b-]
*F:
{4c
=1
4.f
8g
8a
8b-
8cc
8dd
=2
4.cc
8b-
4a}
=3
{8cc
8ff
=4
4.dd
8cc
8cc
8b-
4a
=5
2g}
=6
{2cc
=7
8g
8b-
8a
8g
4f
4e
=8
8f
8g
8a
8f
4cc}
=9
{8cc
8dd
=10
8cc
8b-
8a
8g
4a
4g
=11
2.f}
==
*-
!!!minrhy: 8
!!!meters: 4/4 ]  ZZ[4
!!!cut: Es ist dunkel auf hohen Bergen (3-58), S. 168
!!!reg: Lothringen
!!!trd: PINCK, Louis: Verklingende Weisen, Bd3, Metz 1933
!!!rhy1: X_  X_.XXXXX  X_.XX_
!!!rhy2: XX  X_.XXXX_  X__
!!!key: P1031  08  F 4/4 ]  ZZ[4
!!!mod: HEPTATONIK IONISCH]  AMBITUS[11
!!!kad: 3251
!!!akz: 1353_652_52115_5311_
!!!fot: 'a__b__c__d__
!!!for: 'a__b__c__cw_
!!!fok: '^a_\__W__\__
!! PHRAS[AUFTAKTIG]
!!!fkt: verlorene Liebe
!!!bem: Melodie der Strophen 1-7
!! LOTH VKL
!! PR[18] 2K[4] 2G[13] 3K[16] 3G[7] 4A[0] 4Ü[0] 5A[2] 6K[0] 6G[0]
!! 7K[0] 7G[0] 8A[0] MEHR[0] SI[42] ABS[45] SR[18] SP[24]
!! ST[10] 2k[2] 2g[11] 3k[13] 3g[4] 4d[4] 4ü[0] 5d[4] 6k[0] 6g[0]
!! 7k[0] 7g[0] 8d[0] mehr[0] si[40] dm[+2] sr[13] sp[27]
!! 1F[2] 2F[38] 3F[54] 4F[4] LF[0] 2P[2] 3P[0] 4P[0] TRI[0] DF[5] AB[48]
!! TF[0] U3K[0] U3[0] U4[0] U4Ü[0] U5[0] U6K[0] U6[0] U7K[0] U7[2]
!! N1[11] N2K[0] N2[9] N3K[0] N3[17] N4[13] N4Ü[0] N5[28] N6K[0] N6[15]
!!!n7k: 0] N7[0] O1[4] O2K[0] O2[0] O3K[0] O3[0] HÖ[0
